public/assets/about/new-keys.svg

<svg width="191" height="253" viewBox="0 0 191 253" fill="none" xmlns="http://www.w3.org/2000/svg">
<path fill-rule="evenodd" clip-rule="evenodd" d="M63.3147 100.672L94.2889 103.975L106.947 136.996L82.3095 164.662L62.6359 165.146L55.9239 173.209L51.1042 173.211L17.388 216.605L7.19485 215.346L4.10849 205.55L28.5874 176.146L27.8748 173.144L44.4572 153.225L42.8731 145.482L44.8472 143.111C43.6868 140.004 41.8075 131.908 43.5736 124.386L63.3147 100.672ZM71.4571 108.254L88.7618 110.615L95.8831 130.997L70.0391 116.709C68.5633 114.945 66.7809 110.784 71.4571 108.254Z" fill="#225C90"/>
<path fill-rule="evenodd" clip-rule="evenodd" d="M78.4114 112.438L109.147 113.133L125.28 141.016L106.174 171.682L92.2688 172.954L87.1361 179.119L81.9216 179.596L48.6845 233.024L38.5732 237.454L35.7276 235.085L33.0337 219.995L37.2202 217.86L37.4537 210.828L43.5373 210.272L45.5114 207.9L43.7709 203.239L47.642 202.447L49.6161 200.076L49.6932 196.125L55.382 196.043L58.9353 191.775L57.1947 187.114L60.6711 186.796L62.8811 182.213L60.1101 171.073L63.2687 167.279L60.1053 161.434L64.8431 155.743C63.3931 152.662 60.1761 144.952 58.9088 138.758L78.4114 112.438ZM84.0255 121.126L104.017 124.118L115.086 139.757C115.35 141.048 114.804 143.376 110.505 142.367L84.7381 124.128L84.0255 121.126Z" fill="url(#paint0_linear_1340_663)"/>
<path d="M141.387 115.883C128.503 131.358 105.755 133.594 90.5848 120.965C75.4145 108.336 73.4883 85.5593 86.3717 70.0834C99.255 54.6076 122.003 52.3722 137.174 65.0012C152.344 77.6302 154.27 100.407 141.387 115.883Z" stroke="#225C90" stroke-width="3.7026"/>
<path d="M125.144 42.2557C127.958 32.9738 128.891 24.4866 129.005 21.4032L122.22 21.1514L120.553 32.8225C118.067 46.5628 118.845 56.6368 119.546 59.9562C127.985 85.4645 132.899 60.6577 134.301 45.0657L128.136 44.8369C127.683 60.6287 125.434 63.6741 124.366 63.2227C123.452 60.1012 122.329 51.5377 125.144 42.2557Z" fill="#0DAEF1"/>
<path fill-rule="evenodd" clip-rule="evenodd" d="M125.266 26.2044C129.694 26.3687 133.416 22.9127 133.58 18.4851C133.745 14.0576 130.289 10.3351 125.861 10.1708C121.433 10.0065 117.711 13.4625 117.547 17.8901C117.382 22.3176 120.838 26.0401 125.266 26.2044ZM125.449 21.2708C127.152 21.334 128.584 20.0048 128.647 18.3019C128.71 16.599 127.381 15.1673 125.678 15.1041C123.975 15.0409 122.543 16.3701 122.48 18.073C122.417 19.7759 123.746 21.2076 125.449 21.2708Z" fill="#0DAEF1"/>
<defs>
<linearGradient id="paint0_linear_1340_663" x1="113.416" y1="116.687" x2="23.3967" y2="224.82" gradientUnits="userSpaceOnUse">
<stop offset="0.455" stop-color="#0DAEF1"/>
<stop offset="1" stop-color="#07648B"/>
</linearGradient>
</defs>
</svg>

<svg xmlns="http://www.w3.org/2000/svg" width="191" height="253" fill="none"><path fill="#225C90" fill-rule="evenodd" d="m63.315 100.672 30.974 3.303 12.658 33.021-24.638 27.666-19.673.484-6.712 8.063-4.82.002-33.716 43.394-10.193-1.259-3.087-9.796 24.48-29.404-.713-3.002 16.582-19.919-1.584-7.743 1.974-2.371c-1.16-3.107-3.04-11.203-1.273-18.725zm8.142 7.582 17.305 2.361 7.121 20.382-25.844-14.288c-1.476-1.764-3.258-5.925 1.418-8.455" clip-rule="evenodd"/><path fill="url(#a)" fill-rule="evenodd" d="m78.411 112.438 30.736.695 16.133 27.883-19.106 30.666-13.905 1.272-5.133 6.165-5.214.477-33.237 53.428-10.112 4.43-2.845-2.369-2.694-15.09 4.186-2.135.234-7.032 6.083-.556 1.974-2.372-1.74-4.661 3.871-.792 1.974-2.371.077-3.951 5.689-.082 3.553-4.268-1.74-4.661 3.476-.318 2.21-4.583-2.77-11.14 3.158-3.794-3.164-5.845 4.738-5.691c-1.45-3.081-4.667-10.791-5.934-16.985zm5.614 8.688 19.992 2.992 11.069 15.639c.264 1.291-.282 3.619-4.581 2.61l-25.767-18.239z" clip-rule="evenodd"/><path stroke="#225C90" stroke-width="3.703" d="M141.387 115.883c-12.884 15.475-35.632 17.711-50.802 5.082s-17.097-35.406-4.213-50.882c12.883-15.475 35.631-17.71 50.802-5.082 15.17 12.63 17.096 35.406 4.213 50.882Z"/><path fill="#0DAEF1" d="M125.144 42.256c2.814-9.282 3.747-17.77 3.861-20.853l-6.785-.252-1.667 11.671c-2.486 13.74-1.708 23.815-1.007 27.134 8.439 25.508 13.353.702 14.755-14.89l-6.165-.23c-.453 15.793-2.702 18.838-3.77 18.387-.914-3.122-2.037-11.685.778-20.967"/><path fill="#0DAEF1" fill-rule="evenodd" d="M125.266 26.204a8.02 8.02 0 0 0 8.314-7.719 8.02 8.02 0 0 0-7.719-8.314 8.02 8.02 0 0 0-8.314 7.72 8.02 8.02 0 0 0 7.719 8.313m.183-4.933a3.085 3.085 0 1 0 .23-6.167 3.085 3.085 0 0 0-.23 6.167" clip-rule="evenodd"/><defs><linearGradient id="a" x1="113.416" x2="23.397" y1="116.687" y2="224.82" gradientUnits="userSpaceOnUse"><stop offset=".455" stop-color="#0DAEF1"/><stop offset="1" stop-color="#07648B"/></linearGradient></defs></svg>
